dist/assets/images/f-button-bg.svg

<svg width="62" height="61" viewBox="0 0 62 61" fill="none" xmlns="http://www.w3.org/2000/svg">
<path id="Star 1" d="M1.9926 30.7705L1.70115 31.0073L1.9926 30.7705C0.792462 29.293 0.993146 27.1273 2.44434 25.8955L2.81325 25.5823C4.20268 24.4029 4.74356 22.502 4.18311 20.7678L4.0343 20.3073C3.44894 18.4961 4.41843 16.5491 6.2166 15.9247L6.67373 15.7659C8.39537 15.1681 9.58644 13.5909 9.6903 11.7714L9.71787 11.2883C9.82634 9.38785 11.4337 7.92254 13.336 7.98989L13.8196 8.00701C15.6409 8.07148 17.3213 7.03102 18.0755 5.37188L18.2757 4.93135C19.0634 3.19846 21.0915 2.41275 22.841 3.16274L23.2858 3.35339C24.9608 4.07146 26.9036 3.7083 28.2062 2.43361L28.552 2.09517C29.9125 0.763823 32.0875 0.763822 33.448 2.09516L33.7938 2.43361C35.0964 3.70829 37.0392 4.07146 38.7142 3.35339L39.159 3.16274C40.9085 2.41275 42.9366 3.19846 43.7243 4.93135L43.9245 5.37187C44.6786 7.03102 46.359 8.07148 48.1804 8.00701L48.664 7.98989C50.5663 7.92254 52.1737 9.38785 52.2821 11.2883L52.3097 11.7714C52.4136 13.5909 53.6046 15.1681 55.3263 15.7659L55.7834 15.9247C57.5816 16.5491 58.5511 18.4961 57.9657 20.3073L57.8169 20.7678C57.2564 22.502 57.7973 24.4029 59.1868 25.5823L59.5557 25.8955C61.0069 27.1273 61.2075 29.293 60.0074 30.7705L59.7023 31.1461C58.5532 32.5607 58.3709 34.5287 59.2404 36.1304L59.4713 36.5557C60.3795 38.2285 59.7843 40.3205 58.1315 41.2647L57.7113 41.5047C56.1288 42.4087 55.2479 44.178 55.4801 45.9856L55.5418 46.4655C55.7844 48.3535 54.4736 50.0892 52.5913 50.3726L52.1128 50.4446C50.3106 50.7159 48.85 52.0474 48.4136 53.8169L48.2977 54.2867C47.8419 56.1348 45.9927 57.2798 44.1351 56.8641L43.6629 56.7584C41.8844 56.3603 40.0415 57.0743 38.9953 58.5666L38.7175 58.9629C37.6249 60.5215 35.4869 60.9212 33.905 59.8625L33.5028 59.5934C31.9882 58.5797 30.0118 58.5797 28.4972 59.5934L28.095 59.8625C26.5131 60.9212 24.3751 60.5215 23.2825 58.9629L23.0047 58.5666C21.9585 57.0743 20.1156 56.3603 18.3371 56.7584L17.8649 56.8641C16.0073 57.2798 14.1581 56.1348 13.7023 54.2867L13.5864 53.8169C13.15 52.0474 11.6894 50.7159 9.88718 50.4446L9.40867 50.3726C7.52638 50.0892 6.21564 48.3535 6.45822 46.4655L6.51988 45.9856C6.75214 44.178 5.87116 42.4087 4.28868 41.5047L3.86851 41.2647C2.21568 40.3205 1.62046 38.2285 2.52867 36.5557L2.75955 36.1304C3.62911 34.5287 3.44675 32.5607 2.29769 31.1461L1.9926 30.7705Z" fill="#EFEFEF" stroke="#242424"/>
</svg>

<svg width="62" height="61" fill="none" xmlns="http://www.w3.org/2000/svg"><path d="m1.993 30.77-.292.237.292-.237a3.5 3.5 0 0 1 .451-4.875l.37-.313a4.5 4.5 0 0 0 1.37-4.814l-.15-.46a3.5 3.5 0 0 1 2.183-4.383l.457-.16a4.5 4.5 0 0 0 3.016-3.994l.028-.483a3.5 3.5 0 0 1 3.618-3.298l.484.017a4.5 4.5 0 0 0 4.256-2.635l.2-.44a3.5 3.5 0 0 1 4.565-1.77l.445.191a4.5 4.5 0 0 0 4.92-.92l.346-.338a3.5 3.5 0 0 1 4.896 0l.346.339a4.5 4.5 0 0 0 4.92.92l.445-.191a3.5 3.5 0 0 1 4.565 1.768l.2.44a4.5 4.5 0 0 0 4.256 2.636l.484-.017a3.5 3.5 0 0 1 3.618 3.298l.028.483a4.5 4.5 0 0 0 3.016 3.995l.457.159a3.5 3.5 0 0 1 2.183 4.382l-.15.46a4.5 4.5 0 0 0 1.37 4.815l.37.313a3.5 3.5 0 0 1 .451 4.875l-.305.376a4.5 4.5 0 0 0-.462 4.984l.231.426a3.5 3.5 0 0 1-1.34 4.709l-.42.24a4.5 4.5 0 0 0-2.23 4.48l.06.48a3.5 3.5 0 0 1-2.95 3.908l-.478.072a4.5 4.5 0 0 0-3.7 3.372l-.115.47a3.5 3.5 0 0 1-4.163 2.577l-.472-.106a4.5 4.5 0 0 0-4.668 1.809l-.277.396a3.5 3.5 0 0 1-4.813.9l-.402-.27a4.5 4.5 0 0 0-5.006 0l-.402.27a3.5 3.5 0 0 1-4.813-.9l-.277-.396a4.5 4.5 0 0 0-4.668-1.809l-.472.106a3.5 3.5 0 0 1-4.163-2.577l-.116-.47a4.5 4.5 0 0 0-3.699-3.372l-.478-.072a3.5 3.5 0 0 1-2.95-3.907l.06-.48a4.5 4.5 0 0 0-2.23-4.481l-.42-.24a3.5 3.5 0 0 1-1.34-4.71l.23-.425a4.5 4.5 0 0 0-.461-4.984l-.305-.376Z" fill="#EFEFEF" stroke="#242424"/></svg>
